icons/svg/announcement_14.svg

<?xml version="1.0" encoding="UTF-8"?>
<svg width="14px" height="12px" viewBox="0 0 14 12" version="1.1" xmlns="http://www.w3.org/2000/svg" xmlns:xlink="http://www.w3.org/1999/xlink">
    <!-- Generator: Sketch 59.1 (86144) - https://sketch.com -->
    <title>meetings/announcement_14</title>
    <desc>Created with Sketch.</desc>
    <g id="Icons-Webex" stroke="none" stroke-width="1" fill="none" fill-rule="evenodd">
        <g id="meetings/feedback_14" transform="translate(0.000000, -1.000000)" fill="#171B1F">
            <g id="feedback_14" transform="translate(0.000000, 1.000000)">
                <path d="M13,8.3636 C13,8.5556 12.912,8.7366 12.76,8.8576 C12.602,8.9816 12.397,9.0276 12.201,8.9826 L3,6.8926 L3,2.8986 L12.204,1.0176 C12.4,0.9736 12.603,1.0186 12.76,1.1426 C12.912,1.2636 13,1.4446 13,1.6366 L13,8.3636 Z M4.977,10.4636 C5.019,10.5896 4.998,10.7226 4.921,10.8306 C4.736,11.0866 4.294,11.0226 4.194,10.6956 L3.271,7.9796 L4.164,8.1826 L4.977,10.4636 Z M1,4.8886 C1,4.3016 1.28,3.5766 2,3.1946 L2,6.5836 C1.277,6.1996 1,5.4746 1,4.8886 L1,4.8886 Z M13.383,0.3606 C12.987,0.0466 12.477,-0.0694 11.992,0.0406 L2.301,2.0206 C0.712,2.3856 0.001,3.7236 0,4.8886 C0,6.0066 0.663,7.2756 2.12,7.7006 L3.242,11.0026 C3.424,11.5986 3.965,12.0006 4.589,12.0006 C5.041,12.0006 5.468,11.7816 5.732,11.4146 C6,11.0436 6.07,10.5816 5.922,10.1366 L5.318,8.4446 L11.979,9.9576 C12.104,9.9856 12.229,10.0006 12.355,10.0006 C12.726,10.0006 13.086,9.8766 13.383,9.6396 C13.775,9.3276 14,8.8626 14,8.3636 L14,1.6366 C14,1.1376 13.775,0.6726 13.383,0.3606 L13.383,0.3606 Z" id="fill"></path>
            </g>
        </g>
    </g>
</svg>

<svg width="14" height="12" xmlns="http://www.w3.org/2000/svg"><path d="M13 8.364a.63.63 0 01-.24.494.664.664 0 01-.559.125L3 6.893V2.899l9.204-1.881a.66.66 0 01.556.125.63.63 0 01.24.494v6.727zm-8.023 2.1a.404.404 0 01-.056.367c-.185.256-.627.192-.727-.135L3.271 7.98l.893.203.813 2.28zM1 4.889c0-.587.28-1.312 1-1.694v3.389c-.723-.384-1-1.11-1-1.695zM13.383.36a1.649 1.649 0 00-1.391-.32L2.301 2.02C.712 2.386.001 3.724 0 4.889 0 6.007.663 7.276 2.12 7.7l1.122 3.302c.182.596.723.998 1.347.998a1.411 1.411 0 001.333-1.864l-.604-1.692 6.661 1.513a1.641 1.641 0 001.404-.318c.392-.312.617-.777.617-1.276V1.637c0-.5-.225-.964-.617-1.276z" fill="#171B1F" fill-rule="evenodd"/></svg>
